src/images/partners/gelato.svg

<svg width="134" height="134" viewBox="0 0 134 134" fill="none" xmlns="http://www.w3.org/2000/svg">
<g clip-path="url(#clip0_1966_10496)">
<rect width="134" height="134" rx="67" fill="#FB43FF"/>
<rect width="134" height="134" rx="67" fill="url(#paint0_linear_1966_10496)"/>
<rect width="134" height="134" rx="67" fill="url(#paint1_linear_1966_10496)"/>
<path d="M91.3367 53.3384C91.3299 54.4933 90.2618 55.3102 89.1071 55.1894C86.2448 54.8899 83.6223 54.9148 81.1707 55.1687C75.8342 55.7213 71.3993 57.3576 67.3106 58.866L67.3017 58.8693C67.0543 58.9606 66.8081 59.0514 66.5631 59.1415C62.2217 60.7376 58.2212 62.1106 53.4749 62.2195C51.5816 62.263 49.5418 62.1048 47.2957 61.6556C45.3692 61.2704 43.8301 59.8085 43.4484 57.891C43.1459 56.3716 42.9873 54.8007 42.9873 53.193C42.9873 39.9114 53.8108 29.1445 67.1622 29.1445C80.5137 29.1445 91.3372 39.9114 91.3372 53.193C91.3372 53.2415 91.337 53.29 91.3367 53.3384Z" fill="url(#paint2_radial_1966_10496)"/>
<path d="M45.1374 65.2886C43.322 64.8547 41.6653 66.7952 42.5594 68.4257L66.2889 111.702C66.6707 112.399 67.6758 112.399 68.0575 111.702L94.2487 63.9364C95.1776 62.2422 94.2838 60.1201 92.3815 59.742C88.2428 58.9195 84.7166 58.8311 81.5781 59.1561C76.7626 59.6548 72.7632 61.1285 68.6114 62.6584C68.3914 62.7395 68.171 62.8207 67.9501 62.9019C63.6036 64.4998 59.0421 66.1015 53.5581 66.2274C50.9517 66.2873 48.1753 66.0146 45.1374 65.2886Z" fill="url(#paint3_linear_1966_10496)"/>
<path d="M67.1621 64.0263C67.1621 63.5244 67.4772 63.0759 67.9505 62.9019C68.1715 62.8207 68.3919 62.7395 68.6118 62.6584C72.7636 61.1285 76.7631 59.6548 81.5786 59.1561C84.7171 58.8311 88.2433 58.9195 92.3819 59.742C94.2843 60.1201 95.1781 62.2422 94.2491 63.9364L68.058 111.702C67.865 112.054 67.5127 112.228 67.1621 112.224V64.0263Z" fill="url(#paint4_linear_1966_10496)"/>
</g>
<defs>
<linearGradient id="paint0_linear_1966_10496" x1="26.6633" y1="15.7245" x2="86.1429" y2="123.745" gradientUnits="userSpaceOnUse">
<stop stop-color="#FF9FB2"/>
<stop offset="1" stop-color="#A3C9FF"/>
</linearGradient>
<linearGradient id="paint1_linear_1966_10496" x1="32.9975" y1="-6.34873e-07" x2="78.39" y2="170.682" gradientUnits="userSpaceOnUse">
<stop stop-color="#FFD1A8"/>
<stop offset="0.999061" stop-color="#FF7284"/>
</linearGradient>
<radialGradient id="paint2_radial_1966_10496" cx="0" cy="0" r="1" gradientUnits="userSpaceOnUse" gradientTransform="translate(81.8194 36.1587) rotate(149.973) scale(42.0168 50.2117)">
<stop offset="0.116813" stop-color="#846C6B"/>
<stop offset="0.734375" stop-color="#1C0008"/>
<stop offset="1" stop-color="#5F4A48"/>
</radialGradient>
<linearGradient id="paint3_linear_1966_10496" x1="68.4641" y1="60.2489" x2="68.4641" y2="112.225" gradientUnits="userSpaceOnUse">
<stop stop-color="#866767"/>
<stop offset="0.46875" stop-color="#180208"/>
<stop offset="1" stop-color="#2E1015"/>
</linearGradient>
<linearGradient id="paint4_linear_1966_10496" x1="80.8906" y1="58.9805" x2="80.8906" y2="115.686" gradientUnits="userSpaceOnUse">
<stop stop-color="#A77874"/>
<stop offset="1" stop-color="#090404"/>
</linearGradient>
<clipPath id="clip0_1966_10496">
<rect width="134" height="134" rx="67" fill="white"/>
</clipPath>
</defs>
</svg>

<svg xmlns="http://www.w3.org/2000/svg" width="134" height="134" fill="none"><g clip-path="url(#a)"><rect width="134" height="134" fill="#FB43FF" rx="67"/><rect width="134" height="134" fill="url(#b)" rx="67"/><rect width="134" height="134" fill="url(#c)" rx="67"/><path fill="url(#d)" d="M91.337 53.338c-.007 1.155-1.075 1.972-2.23 1.851a38.06 38.06 0 0 0-7.936-.02c-5.337.552-9.772 2.189-13.86 3.697l-.01.003-.738.273c-4.341 1.596-8.342 2.969-13.088 3.077-1.893.044-3.933-.114-6.18-.563-1.926-.386-3.465-1.847-3.847-3.765a24.042 24.042 0 0 1-.46-4.698c0-13.282 10.823-24.048 24.174-24.048 13.352 0 24.175 10.766 24.175 24.048v.145Z"/><path fill="url(#e)" d="M45.137 65.289c-1.815-.434-3.472 1.506-2.578 3.137l23.73 43.276a1.01 1.01 0 0 0 1.769 0l26.19-47.766c.93-1.694.036-3.816-1.867-4.194-4.138-.822-7.664-.91-10.803-.586-4.815.499-8.815 1.973-12.967 3.502l-.66.244c-4.347 1.598-8.909 3.2-14.393 3.325-2.606.06-5.383-.212-8.42-.938Z"/><path fill="url(#f)" d="M67.162 64.026c0-.502.315-.95.788-1.124l.662-.244c4.152-1.53 8.151-3.003 12.967-3.502 3.138-.325 6.664-.236 10.803.586 1.902.378 2.796 2.5 1.867 4.194l-26.191 47.766a.998.998 0 0 1-.896.522V64.026Z"/></g><defs><linearGradient id="b" x1="26.663" x2="86.143" y1="15.725" y2="123.745" gradientUnits="userSpaceOnUse"><stop stop-color="#FF9FB2"/><stop offset="1" stop-color="#A3C9FF"/></linearGradient><linearGradient id="c" x1="32.998" x2="78.39" y1="0" y2="170.682" gradientUnits="userSpaceOnUse"><stop stop-color="#FFD1A8"/><stop offset=".999" stop-color="#FF7284"/></linearGradient><linearGradient id="e" x1="68.464" x2="68.464" y1="60.249" y2="112.225" gradientUnits="userSpaceOnUse"><stop stop-color="#866767"/><stop offset=".469" stop-color="#180208"/><stop offset="1" stop-color="#2E1015"/></linearGradient><linearGradient id="f" x1="80.891" x2="80.891" y1="58.98" y2="115.686" gradientUnits="userSpaceOnUse"><stop stop-color="#A77874"/><stop offset="1" stop-color="#090404"/></linearGradient><radialGradient id="d" cx="0" cy="0" r="1" gradientTransform="rotate(149.973 36.06 29.051) scale(42.0168 50.2117)" gradientUnits="userSpaceOnUse"><stop offset=".117" stop-color="#846C6B"/><stop offset=".734" stop-color="#1C0008"/><stop offset="1" stop-color="#5F4A48"/></radialGradient><clipPath id="a"><rect width="134" height="134" fill="#fff" rx="67"/></clipPath></defs></svg>
